X:111
T:Rondo
O:No 111 Wm Clarke MS  Feltwell, Norfolk
I:abc2nwc
M:2/4
L:1/16
K:G
G2D2|:B2G2 d2B2|c2A2 e2d2|c2B2 c2A2|
A2G2 G2D2|B2G2 d2B2|c2A2 e2d2|c2B2 c2A2|G4:|
|:d2A2|f2d2 a2f2|g2e2 b2a2|g2f2 g2e2|
e2d2 d2A2|f2d2 a2f2|g2e2 b2a2|g2f2 g2e2|d4||
b2b2|(c'2.b2) .b2.b2|(c'2.b2) .b2.b2|c'2b2 a2g2|g2f2 b2b2|
(c'2.b2) .b2.b2|(c'2.b2) .b2.b2|c'2b2 a2g2|f4|]

